icons/svg/32x32/briefcase/filled.svg

<svg width="32" height="32" fill="none" xmlns="http://www.w3.org/2000/svg">
  <path fill-rule="evenodd" clip-rule="evenodd" d="M19 17h11v6.411a4 4 0 01-3.611 3.982C23.52 27.673 19.433 28 16 28c-3.433 0-7.52-.327-10.389-.607A4 4 0 012 23.411V17h11v2a1 1 0 001 1h4a1 1 0 001-1v-2zm-7-9.901V6a1 1 0 011-1h6a1 1 0 011 1v1.099A87.141 87.141 0 0016 7c-1.352 0-2.699.039-4 .099zm14.416.479c-1.254-.128-2.77-.261-4.416-.368V6c0-1.654-1.346-3-3-3h-6c-1.654 0-3 1.346-3 3v1.21c-1.646.107-3.162.24-4.416.368A3.995 3.995 0 002 11.557V15h28v-3.443a3.995 3.995 0 00-3.584-3.979z" fill="#000"/>
</svg>

<svg xmlns="http://www.w3.org/2000/svg" width="32" height="32" viewBox="0 0 32 32">
  <path fill-rule="evenodd" d="M19,17 L30,17 L30,23.411 C30,25.471 28.439,27.192 26.389,27.393 C23.52,27.673 19.433,28 16,28 C12.567,28 8.48,27.673 5.611,27.393 C3.561,27.192 2,25.471 2,23.411 L2,17 L13,17 L13,19 C13,19.553 13.447,20 14,20 L18,20 C18.553,20 19,19.553 19,19 L19,17 Z M12,7.099 L12,6 C12,5.448 12.448,5 13,5 L19,5 C19.552,5 20,5.448 20,6 L20,7.099 C18.699,7.039 17.352,7 16,7 C14.648,7 13.301,7.039 12,7.099 L12,7.099 Z M26.416,7.578 C25.162,7.45 23.646,7.317 22,7.21 L22,6 C22,4.346 20.654,3 19,3 L13,3 C11.346,3 10,4.346 10,6 L10,7.21 C8.354,7.317 6.838,7.45 5.584,7.578 C3.546,7.785 2,9.508 2,11.557 L2,15 L30,15 L30,11.557 C30,9.508 28.454,7.785 26.416,7.578 L26.416,7.578 Z"/>
</svg>
